X:167
M:3/4
L:1/4
K:F
C F G | A A A  | B F G | A2 z | A G ^F | G A G | F E3/2 D/ | G3 | C F G | A A A  | B B =B | c2 z | c B A | D G/ z/ F | E !fermata!A G | F3 | A B c | A G F | E3/2 F/ G | A2 z | A B c | A G F | D3/2 E/ F | G3 | C F G | A A A | d d3/2 c/ | B2 z | !sintro!B A G | D G/ z/ F | E A3/2 G/ | F3 !eintro!|]
